X:46
T:Wednesday Night
S:John Moore's Book 2
Z:Transcribed by Steve Mansfield 04/2021
%%VWML: Moore1-4494-p35-0
F:http://www.vwml.org/record/Moore2/4494/p35
M:C
L:1/8
K:D
D2FA d2f2 | (ed)(cB) (AG)(FE) | D2FA d2f2 | (ed)(cd) e2e2 :| 
|: (fa)(fd) B2(gf) | (ed)(cB) (AG)(FE) | D2FA d2f2 | fedc d2z2 :| 

